tools/download-figma-icons/icons/solid/money-bag-100.svg

<svg width="24" height="24" viewBox="0 0 24 24" fill="none" xmlns="http://www.w3.org/2000/svg">
<path fill-rule="evenodd" clip-rule="evenodd" d="M16.8615 5.63779L19.3665 2.05954C19.5315 1.82704 19.5458 1.51954 19.4115 1.27204C19.209 0.91204 18.5265 0.26704 16.194 0.03454C14.8065 -0.10046 13.599 0.18454 12.429 0.46954L12.3793 0.48145C11.52 0.687157 10.7028 0.88279 9.86401 0.88279C7.9135 0.88279 5.67557 0.131999 5.50877 0.0760386C5.50304 0.0741166 5.49975 0.0730142 5.49901 0.0727901C5.20651 -0.03296 4.89076 0.05704 4.68901 0.28204C4.48651 0.51454 4.44151 0.84454 4.58401 1.11454L6.83401 5.54704C6.96151 5.80204 7.21651 5.95954 7.50151 5.95954H16.2465C16.4865 5.95954 16.719 5.83954 16.8615 5.63779ZM11.2662 14.2097C11.5137 14.2097 11.6262 14.2922 11.6937 14.3672C11.9712 14.6672 12.0162 15.3722 12.0012 15.6647C11.9937 15.7097 11.9937 15.7472 11.9937 15.7922C12.0162 16.0704 11.9712 16.7522 11.7012 17.0447C11.6262 17.1197 11.5137 17.2097 11.2512 17.2097C10.9962 17.2097 10.8762 17.1197 10.8087 17.0447C10.5087 16.7222 10.4937 16.0097 10.5087 15.7922V15.6647C10.4787 15.3872 10.5237 14.6897 10.802 14.3829C10.8762 14.2997 10.9895 14.2097 11.2587 14.2097H11.2662ZM16.5162 14.2097C16.7637 14.2097 16.8762 14.2922 16.9437 14.3672C17.2212 14.6672 17.2662 15.3722 17.2512 15.6647C17.2437 15.7097 17.2437 15.7472 17.2437 15.7922C17.2662 16.0704 17.2212 16.7522 16.9512 17.0447C16.8762 17.1197 16.7637 17.2097 16.5012 17.2097C16.2462 17.2097 16.1262 17.1197 16.0587 17.0447C15.7587 16.7222 15.7437 16.0097 15.7587 15.7922V15.6647C15.7287 15.3872 15.7737 14.6897 16.052 14.3829C16.1262 14.2997 16.2395 14.2097 16.5087 14.2097H16.5162ZM16.5012 18.7097C17.1312 18.7097 17.6637 18.4847 18.0537 18.0572C18.7812 17.2697 18.7662 16.0472 18.7437 15.7322C18.7662 15.4097 18.7812 14.1497 18.0462 13.3547C17.6562 12.9347 17.1237 12.7097 16.5162 12.7097H16.5012C15.8712 12.7097 15.332 12.9422 14.9412 13.3697C14.2137 14.1722 14.237 15.4097 14.2587 15.7322C14.2437 16.0547 14.2287 17.2697 14.957 18.0572C15.3462 18.4847 15.8787 18.7097 16.5012 18.7097ZM11.2512 18.7097C11.8812 18.7097 12.4137 18.4847 12.8037 18.0572C13.5312 17.2697 13.5162 16.0472 13.4937 15.7322C13.5162 15.4097 13.5312 14.1497 12.7962 13.3547C12.4287 12.9497 11.927 12.7097 11.3487 12.7097H11.2512C10.6212 12.7097 10.082 12.9422 9.69121 13.3697C8.96371 14.1722 8.98696 15.4097 9.00871 15.7322C8.99371 16.0547 8.97871 17.2697 9.70696 18.0572C10.0962 18.4847 10.6287 18.7097 11.2512 18.7097ZM7.50119 18.7096C7.91369 18.7096 8.25119 18.3721 8.25119 17.9596V13.4596C8.25119 13.1671 8.07869 12.8971 7.80869 12.7771C7.53869 12.6571 7.22369 12.7021 7.00619 12.8971L5.50619 14.2321C5.19119 14.5021 5.16869 14.9746 5.43869 15.2896C5.71619 15.5971 6.18869 15.6271 6.49619 15.3496L6.75119 15.1246V17.9596C6.75119 18.3721 7.08869 18.7096 7.50119 18.7096ZM16.8087 7.52716C17.0262 7.62466 22.1637 9.96466 23.0937 15.3347C23.4987 17.7122 23.1312 19.5422 21.9612 20.9297C20.2962 22.9097 17.0337 23.8697 12.0012 23.8697C6.96871 23.8697 3.70696 22.9097 2.04121 20.9297C0.871211 19.5422 0.503711 17.7122 0.908711 15.3347C1.83871 9.96466 6.97621 7.62466 7.19371 7.52716C7.29121 7.48216 7.39696 7.45966 7.50121 7.45966H16.5012C16.6062 7.45966 16.7112 7.48216 16.8087 7.52716Z" fill="black"/>
</svg>

<svg xmlns="http://www.w3.org/2000/svg" width="24" height="24" fill="none" viewBox="0 0 24 24"><path fill="currentColor" fill-rule="evenodd" d="m16.862 5.638 2.505-3.578a.75.75 0 0 0 .044-.788C19.21.912 18.527.267 16.195.035 14.808-.1 13.6.185 12.43.47l-.05.011c-.859.206-1.676.402-2.515.402-1.95 0-4.188-.751-4.355-.807L5.5.073a.745.745 0 0 0-.81.209.74.74 0 0 0-.105.833l2.25 4.432a.74.74 0 0 0 .668.413h8.745c.24 0 .472-.12.614-.322m-5.596 8.572c.248 0 .36.082.428.157.277.3.322 1.005.307 1.298-.007.045-.007.082-.007.127.022.278-.023.96-.293 1.253-.075.075-.187.165-.45.165-.255 0-.375-.09-.442-.165-.3-.323-.315-1.035-.3-1.253v-.127c-.03-.278.015-.975.293-1.282.074-.083.188-.173.457-.173zm5.25 0c.248 0 .36.082.428.157.277.3.322 1.005.307 1.298-.007.045-.007.082-.007.127.022.278-.023.96-.293 1.253-.075.075-.187.165-.45.165-.255 0-.375-.09-.442-.165-.3-.323-.315-1.035-.3-1.253v-.127c-.03-.278.015-.975.293-1.282.074-.083.188-.173.457-.173zm-.015 4.5c.63 0 1.163-.225 1.553-.653.727-.787.712-2.01.69-2.325.022-.322.037-1.582-.698-2.377-.39-.42-.922-.645-1.53-.645h-.015c-.63 0-1.169.232-1.56.66-.727.802-.704 2.04-.682 2.362-.015.323-.03 1.538.698 2.325.39.428.922.653 1.544.653m-5.25 0c.63 0 1.163-.225 1.553-.653.727-.787.712-2.01.69-2.325.022-.322.037-1.582-.698-2.377a1.92 1.92 0 0 0-1.447-.645h-.098c-.63 0-1.169.232-1.56.66-.727.802-.704 2.04-.682 2.362-.015.323-.03 1.538.698 2.325.39.428.922.653 1.544.653m-3.75 0c.413 0 .75-.338.75-.75v-4.5a.75.75 0 0 0-.442-.683.75.75 0 0 0-.803.12l-1.5 1.335a.75.75 0 0 0-.067 1.058.75.75 0 0 0 1.057.06l.255-.225v2.835c0 .412.338.75.75.75M16.81 7.527c.217.098 5.355 2.438 6.285 7.808.405 2.377.037 4.207-1.133 5.595-1.665 1.98-4.927 2.94-9.96 2.94-5.032 0-8.294-.96-9.96-2.94C.871 19.542.504 17.712.91 15.335c.93-5.37 6.067-7.71 6.285-7.808A.7.7 0 0 1 7.5 7.46h9q.16 0 .308.067" clip-rule="evenodd"/></svg>
